exported-svg/headphones.svg

<svg height="24" viewBox="0 0 24 24" width="24" xmlns="http://www.w3.org/2000/svg"><path d="m3 16.4999999v-3.9999999c0-5.24670516 4.25329488-9.5 9.5-9.5 5.2467051 0 9.5 4.25329484 9.5 9.5v3.9999999 3c0 1.3807118-1.1192881 2.5-2.5 2.5h-1c-1.3807119 0-2.5-1.1192882-2.5-2.5v-3c0-1.3807119 1.1192881-2.5 2.5-2.5h2.5v-1.4999999c0-4.69442041-3.8055796-8.5-8.5-8.5-4.69442037 0-8.5 3.80557959-8.5 8.5v1.4999999h2.5c1.38071187 0 2.5 1.1192881 2.5 2.5v3c0 1.3807118-1.11928813 2.5-2.5 2.5h-1c-1.38071187 0-2.5-1.1192882-2.5-2.5zm18 2.0000001v-3.5000001h-2.5c-.8284271 0-1.5.6715728-1.5 1.5v3c0 .8284271.6715729 1.5 1.5 1.5h1c.8284271 0 1.5-.6715729 1.5-1.5zm-17-3.5000001v3.5000001.9999999c0 .8284271.67157288 1.5 1.5 1.5h1c.82842712 0 1.5-.6715729 1.5-1.5v-3c0-.8284272-.67157288-1.5-1.5-1.5z"/></svg>

<?xml version="1.0" encoding="UTF-8"?>
<svg width="24px" height="24px" viewBox="0 0 24 24" version="1.1" xmlns="http://www.w3.org/2000/svg" xmlns:xlink="http://www.w3.org/1999/xlink">
    <!-- Generator: Sketch 55.2 (78181) - https://sketchapp.com -->
    <title>headphones</title>
    <desc>Created with Sketch.</desc>
    <g id="headphones" stroke="none" stroke-width="1" fill="none" fill-rule="evenodd">
        <path d="M3,16.4999999 L3,12.5 C3,7.25329484 7.25329488,3 12.5,3 C17.7467051,3 22,7.25329484 22,12.5 L22,16.4999999 L22,19.4999999 C22,20.8807117 20.8807119,21.9999999 19.5,21.9999999 L18.5,21.9999999 C17.1192881,21.9999999 16,20.8807117 16,19.4999999 L16,16.4999999 C16,15.119288 17.1192881,13.9999999 18.5,13.9999999 L21,13.9999999 L21,12.5 C21,7.80557959 17.1944204,4 12.5,4 C7.80557963,4 4,7.80557959 4,12.5 L4,13.9999999 L6.5,13.9999999 C7.88071187,13.9999999 9,15.119288 9,16.4999999 L9,19.4999999 C9,20.8807117 7.88071187,21.9999999 6.5,21.9999999 L5.5,21.9999999 C4.11928813,21.9999999 3,20.8807117 3,19.4999999 L3,16.4999999 Z M21,18.5 L21,14.9999999 L18.5,14.9999999 C17.6715729,14.9999999 17,15.6715727 17,16.4999999 L17,19.4999999 C17,20.328427 17.6715729,20.9999999 18.5,20.9999999 L19.5,20.9999999 C20.3284271,20.9999999 21,20.328427 21,19.4999999 L21,18.5 Z M4,14.9999999 L4,18.5 L4,19.4999999 C4,20.328427 4.67157288,20.9999999 5.5,20.9999999 L6.5,20.9999999 C7.32842712,20.9999999 8,20.328427 8,19.4999999 L8,16.4999999 C8,15.6715727 7.32842712,14.9999999 6.5,14.9999999 L4,14.9999999 Z" id="Combined-Shape" fill="#000000" fill-rule="nonzero"></path>
    </g>
</svg>
